!!!OTL: 52. Mein Pfeifchen.
!!!OTL-incipit: WENN MEIN PFEIFCHEN DAMPFT UND GLUEHT
!!!COM: Volksweise
!!!ARE: Europa, Mitteleuropa, Deutschland
!!!SCT: F0052A
!!!TXL: @@DE
!!!YEM: Copyright 1995, estate of Helmut Schaffrath.
**kern	**text
*ICvox	*
*clefG2	*
*M2/4	*
*k[f#c#]	*
*D:	*
=1	=1
{8d	1._Wenn
8f#	mein
8f#	Pfeiſchen
8a	.
=2	=2
8a	dampft
16f#L	und
16gJ	.
4e}	glüht,
=3	=3
{8d	und
8f#	der
8f#	Rauch
8a	von
=4	=4
4a	Blättern
4e}	.
=5	=5
{8d	ſanft
8f#	mir
8f#	um
8a	die
=6	=6
8a	Na-
16f#L	-ſe
16gJ	.
4e}	ʒieht,
=7	=7
{8.a	o
16dd	dann
(16b	tauſch'
16g)	ich
(>16g	nicht
16e)	mit
=8	=8
4e	Göttern!
8d	.
8r}	.
=9	=9
{8.e	Schwindet
16a	.
8.a	dann
16e	der
=10	=10
8.e	Rauch
16d	im
(8dL	Wind,
8c#J)}	.
=11	=11
{8.e	fang'
16cc#	ich
8.cc#	an
16g#	ʒu
=12	=12
4g#^	la-
8a	-chen,
8r}	.
=13	=13
{8d	den-
8f#	-ke:
8f#	ſo
8a	ver-
=14	=14
8a	-gäng-
16f#L	-lich
16gJ	.
4e}	ſind
=15	=15
{8.a	al-
16dd	-le,
(16b/	al-
16g)	-le
(16g	an-
16e)	-dre
=16	=16
4e	Sachen.
8d	.
8r}	.
==	==
!!!AGN: Scherz - Lied, Lob des Tabaks
!!!ONB: ESAC (Essen Associative Code) Database: FINK
!!!AMT: simple duple
!!!AIN: vox
!!!EED: Helmut Schaffrath
!!!EEV: 1.0
!!!RDF**kern: > = above
!!!GTL: Volkslieder
!!Text: Volkslied
!!!source: Musikalischer Hausschatz der Deutschen. Eine Sammlung von über 1000 Liedern und Gesängen mit Singstimmen und Klavierbegleitung. Leipzig, Litterarisches Verlags-Haus.
!!!page: 31
!!!URL-scan: https://www.digitale-sammlungen.de/en/view/bsb11144622?page=38,39
!!!ENC: Anna Maria Matuszewska
!!!EEV: 2024/25/07
*-	*-
